src/svgs/system-update.svg

<svg xmlns="http://www.w3.org/2000/svg" viewBox="0 0 24 24" width="512" height="512" aria-labelledby="jqsystem-update-desc jqsystem-update-title"><title id="jqsystem-update-title">System Update Icon</title><desc id="jqsystem-update-desc">A picture depicting a computer screen with a reload symbol in the middle.</desc><path d="M20 2H4a2 2 0 00-2 2v12a2 2 0 002 2h6l-2 4h8l-2-4h6a2 2 0 002-2V4a2 2 0 00-2-2zm-8.194 2.923a5.077 5.077 0 104.724 6.923h.982a6.019 6.019 0 11-.237-4.277l.919-.2-.85 2.631-1.85-2.049.857-.184a5.1 5.1 0 00-4.545-2.844zM14 11.424l-.8.8-2-2V6.715h1.139v3.042z"/></svg>

<svg xmlns="http://www.w3.org/2000/svg" viewBox="0 0 24 24"><path d="M20,2H4A2,2,0,0,0,2,4V16a2,2,0,0,0,2,2h6L8,22h8l-2-4h6a2,2,0,0,0,2-2V4A2,2,0,0,0,20,2ZM11.806,4.923a5.077,5.077,0,1,0,4.724,6.923h.982a6.019,6.019,0,1,1-.237-4.277l.919-.2L17.344,10l-1.85-2.049.857-.184A5.1,5.1,0,0,0,11.806,4.923ZM14,11.424l-.8.8-2-2V6.715h1.139V9.757Z"/></svg>
